X:843
T:Redhaired Boy, The
R:reel
S:Nathaniel Glasser
H:See also hornpipe #55
O:America
Z:id:hn-reel-843
M:C|
K:Amix
AF | EFAB A2AB | cdec d2cd | e2A2 ABcA | BcBA G2FG |
EFAB A2AB | cdec d2cd | efed cBAc | BAGB A2 :|
|: ef | gfef gfef | gfec d2cd | e2A2 ABcA | BcBA G2FG |
EFAB A2AB | cdec d2cd | efed cBAc | BAGB A2 :|

